src/images/n-1000.svg

<svg viewBox="0 0 144 144" xmlns="http://www.w3.org/2000/svg"><path d="m72 9a63 63 0 1 1 -63 63 63.07 63.07 0 0 1 63-63m0-9a72 72 0 1 0 72 72 72 72 0 0 0 -72-72z"/><path d="m92 25.18v40.55c0 3.86-2.15 6-6 6h-.63c-2.47 0-4.25-.89-5.32-2.85l-19.29-34.07.31 32.5c.07 3-1.52 4.69-4.49 4.69s-4.58-1.65-4.58-4.69v-40.54c0-3.87 2.16-6 6-6h.64c2.47 0 4.24.88 5.32 2.85l19.29 34.12-.38-32.56c-.07-3 1.58-4.69 4.56-4.69s4.57 1.65 4.57 4.69z"/><path d="m46.33 98.52v16.19a2.3 2.3 0 0 1 -2.56 2.56 2.3 2.3 0 0 1 -2.56-2.56v-13.71l-3.11 2.67a2 2 0 0 1 -3.1-.27 2 2 0 0 1 .3-3.11l4.7-4.08a3.88 3.88 0 0 1 2.78-1h.22a3 3 0 0 1 3.33 3.31z"/><path d="m50.42 109.59v-6.84c0-4.61 3.43-7.69 8.58-7.69s8.59 3.08 8.59 7.69v6.84c0 4.6-3.41 7.68-8.59 7.68s-8.58-3.08-8.58-7.68zm12-.28v-6.31a3.46 3.46 0 0 0 -6.92 0v6.29a3.46 3.46 0 1 0 6.92 0z"/><path d="m71.13 109.59v-6.84c0-4.61 3.43-7.69 8.58-7.69s8.59 3.08 8.59 7.69v6.84c0 4.6-3.41 7.68-8.59 7.68s-8.58-3.08-8.58-7.68zm12-.28v-6.31a3.46 3.46 0 0 0 -6.92 0v6.29a3.46 3.46 0 1 0 6.92 0z"/><path d="m91.84 109.59v-6.84c0-4.61 3.43-7.69 8.58-7.69s8.59 3.08 8.59 7.69v6.84c0 4.6-3.41 7.68-8.59 7.68s-8.58-3.08-8.58-7.68zm12-.28v-6.31a3.46 3.46 0 0 0 -6.84 0v6.29a3.46 3.46 0 1 0 6.92 0z"/><path d="m21.08 90h101.84a53.76 53.76 0 0 0 2.32-9h-106.48a53.76 53.76 0 0 0 2.32 9z"/></svg>

<svg xmlns="http://www.w3.org/2000/svg" viewBox="0 0 144 144"><title>n-1000</title><g id="Layer_2" data-name="Layer 2"><g id="Layer_1-2" data-name="Layer 1"><path d="M72,9A63,63,0,1,1,9,72,63.07,63.07,0,0,1,72,9m0-9a72,72,0,1,0,72,72A72,72,0,0,0,72,0Z"/><path d="M92,25.18V65.73c0,3.86-2.15,6-6,6h-.63c-2.47,0-4.25-.89-5.32-2.85L60.76,34.81l.31,32.5c.07,3-1.52,4.69-4.49,4.69S52,70.35,52,67.31V26.77c0-3.87,2.16-6,6-6h.64c2.47,0,4.24.88,5.32,2.85L83.25,57.74l-.38-32.56c-.07-3,1.58-4.69,4.56-4.69S92,22.14,92,25.18Z"/><path d="M46.33,98.52v16.19a2.3,2.3,0,0,1-2.56,2.56,2.3,2.3,0,0,1-2.56-2.56V101l-3.11,2.67A2,2,0,0,1,35,103.4a2,2,0,0,1,.3-3.11L40,96.21a3.88,3.88,0,0,1,2.78-1H43A3,3,0,0,1,46.33,98.52Z"/><path d="M50.42,109.59v-6.84c0-4.61,3.43-7.69,8.58-7.69s8.59,3.08,8.59,7.69v6.84c0,4.6-3.41,7.68-8.59,7.68S50.42,114.19,50.42,109.59Zm12-.28V103a3.46,3.46,0,0,0-6.92,0v6.29a3.46,3.46,0,1,0,6.92,0Z"/><path d="M71.13,109.59v-6.84c0-4.61,3.43-7.69,8.58-7.69s8.59,3.08,8.59,7.69v6.84c0,4.6-3.41,7.68-8.59,7.68S71.13,114.19,71.13,109.59Zm12-.28V103a3.46,3.46,0,0,0-6.92,0v6.29a3.46,3.46,0,1,0,6.92,0Z"/><path d="M91.84,109.59v-6.84c0-4.61,3.43-7.69,8.58-7.69s8.59,3.08,8.59,7.69v6.84c0,4.6-3.41,7.68-8.59,7.68S91.84,114.19,91.84,109.59Zm12-.28V103A3.46,3.46,0,0,0,97,103v6.29a3.46,3.46,0,1,0,6.92,0Z"/><path d="M21.08,90H122.92a53.76,53.76,0,0,0,2.32-9H18.76A53.76,53.76,0,0,0,21.08,90Z"/></g></g></svg>
